icons/clipboard-help-outline.svg

<svg xmlns="http://www.w3.org/2000/svg" width="24" height="24" viewBox="0 0 24 24">
  <path d="M16,1 C16.5128358,1 16.9355072,1.38604019 16.9932723,1.88337887 L17,2 L17,3 L18,3 C19.5976809,3 20.9036609,4.24891996 20.9949073,5.82372721 L21,6 L21,20 C21,21.5976809 19.75108,22.9036609 18.1762728,22.9949073 L18,23 L6,23 C4.40231912,23 3.09633912,21.75108 3.00509269,20.1762728 L3,20 L3,6 C3,4.40231912 4.24891996,3.09633912 5.82372721,3.00509269 L6,3 L7,3 L7,2 C7,1.48716416 7.38604019,1.06449284 7.88337887,1.00672773 L8,1 L16,1 Z M7,5 L6,5 C5.48716416,5 5.06449284,5.38604019 5.00672773,5.88337887 L5,6 L5,20 C5,20.5128358 5.38604019,20.9355072 5.88337887,20.9932723 L6,21 L18,21 C18.5128358,21 18.9355072,20.6139598 18.9932723,20.1166211 L19,20 L19,6 C19,5.44771525 18.5522847,5 18,5 L17,5 L17,6 C17,6.51283584 16.6139598,6.93550716 16.1166211,6.99327227 L16,7 L8,7 C7.48716416,7 7.06449284,6.61395981 7.00672773,6.11662113 L7,6 L7,5 Z M12.0001686,16 C12.5524586,16 13.0001686,16.4477 13.0001686,17 C13.0001686,17.5523 12.5524586,18 12.0001686,18 C11.4478886,18 11.0001686,17.5523 11.0001686,17 C11.0001686,16.4477 11.4478886,16 12.0001686,16 Z M12.0001686,10 C12.5537486,10 13.1555886,10.16344 13.6376686,10.525 C14.1397686,10.90158 14.5001686,11.48991 14.5001686,12.25 C14.5001686,12.69838 14.3847686,13.07994 14.1710686,13.4004 C13.9664386,13.70737 13.7009186,13.91339 13.4787086,14.06154 C13.3700286,14.134 13.2594286,14.20036 13.1657686,14.25656 L13.1657686,14.25656 C13.0591686,14.32052 12.9769786,14.37001 12.9005986,14.42093 C12.7478286,14.52279 12.6695886,14.59803 12.6242286,14.66609 C12.3944886,15.01075 11.9288386,15.10391 11.5841786,14.87417 C11.2395186,14.64442 11.1463586,14.17878 11.3760986,13.83412 C11.5807386,13.52712 11.8462486,13.32107 12.0684786,13.1729 C12.1772086,13.10041 12.2878586,13.03402 12.3815586,12.9778 L12.3815586,12.9778 C12.4880486,12.9139 12.5702386,12.86441 12.6466286,12.81349 C12.7994086,12.71162 12.8776486,12.63639 12.9229986,12.56835 C12.9593586,12.51381 13.0001686,12.42662 13.0001686,12.25 C13.0001686,12.01009 12.9022286,11.84842 12.7376686,11.725 C12.5530786,11.58656 12.2799186,11.5 12.0001686,11.5 C11.6314086,11.5 11.4046986,11.59004 11.2599386,11.68654 C11.1104886,11.78617 11.0014986,11.92438 10.9209886,12.08541 C10.7357486,12.45589 10.2852386,12.60606 9.91475858,12.42082 C9.54426858,12.23558 9.39409858,11.78507 9.57934858,11.41459 C9.74882858,11.07562 10.0148386,10.71383 10.4278886,10.43846 C10.8456386,10.15996 11.3689286,10 12.0001686,10 Z M15,3 L9,3 L9,5 L15,5 L15,3 Z"/>
</svg>

<svg xmlns="http://www.w3.org/2000/svg" viewBox="0 0 24 24">
  <path d="M16 1a1 1 0 0 1 1 .88V3h1a3 3 0 0 1 3 2.82V20a3 3 0 0 1-2.82 3H6a3 3 0 0 1-3-2.82V6a3 3 0 0 1 2.82-3H7V2a1 1 0 0 1 .88-1H16zM7 5H6a1 1 0 0 0-1 .88V20a1 1 0 0 0 .88 1H18a1 1 0 0 0 1-.88V6a1 1 0 0 0-1-1h-1v1a1 1 0 0 1-.88 1H8a1 1 0 0 1-1-.88V5zm5 11a1 1 0 1 1 0 2 1 1 0 0 1 0-2zm0-6c.55 0 1.16.16 1.64.53.5.37.86.96.86 1.72a2.03 2.03 0 0 1-1.02 1.81l-.31.2-.27.16a.96.96 0 0 0-.28.25.75.75 0 0 1-1.24-.84c.2-.3.47-.5.69-.66l.31-.2c.1-.06.19-.1.27-.16.15-.1.23-.17.27-.24a.54.54 0 0 0 .08-.32c0-.24-.1-.4-.26-.53a1.26 1.26 0 0 0-.74-.22c-.37 0-.6.09-.74.19a1 1 0 0 0-.34.4.75.75 0 0 1-1.34-.68c.17-.33.43-.7.85-.97.42-.28.94-.44 1.57-.44zm3-7H9v2h6V3z"/>
</svg>
